svgs/duotone/laptop-mobile.svg

<svg xmlns="http://www.w3.org/2000/svg" viewBox="0 0 640 512"><!-- Font Awesome Pro 6.0.0-alpha2 by @fontawesome - https://fontawesome.com License - https://fontawesome.com/license (Commercial License) --><defs><style>.fa-secondary{opacity:.4}</style></defs><path d="M448 192V448H576V192H448ZM128 64H448V96H512V48C512 21.5 490.5 0.125 464.125 0H111.875C85.5 0.125 64 21.5 64 48V288H16C7.125 288 0 295.125 0 304V320C0.125 355.25 28.625 383.875 63.875 384H352V288H128V64Z" class="fa-secondary"/><path d="M604 128H420C400.125 128 384 144.125 384 164V476C384 495.875 400.125 512 420 512H604C623.875 512 640 495.875 640 476V164C640 144.125 623.875 128 604 128ZM576 448H448V192H576V448Z" class="fa-primary"/></svg>

<svg xmlns="http://www.w3.org/2000/svg" viewBox="0 0 640 512"><!--! Font Awesome Pro 6.3.0 by @fontawesome - https://fontawesome.com License - https://fontawesome.com/license (Commercial License) Copyright 2023 Fonticons, Inc. --><defs><style>.fa-secondary{opacity:.4}</style></defs><path class="fa-primary" d="M604 127.1h-184C400.1 127.1 384 144.1 384 164v312C384 495.9 400.1 512 420 512h184C623.9 512 640 495.9 640 476v-312C640 144.1 623.9 127.1 604 127.1zM576 448h-128V192h128V448z"/><path class="fa-secondary" d="M448 192v256h128V192H448zM128 64h320v32h64V48c0-26.5-21.5-47.88-47.88-48H111.9C85.5 .125 64 21.5 64 48V288H16C7.125 288 0 295.1 0 304V320c.125 35.25 28.63 63.88 63.88 64H352V288H128V64z"/></svg>
